X: 354
T:En l'ombre d'ung buissonnet
N: Derived from Jos2813-En_lombre_dung_buissonnet.krn
C: Josquin des Prez
%%abc-version 2.0
%%abcx-abcm2ps-target-version 5.9.1 (29 Sep 2008)
%%abc-creator hum2abc beta
%%abcx-conversion-date 2019/02/12 16:15:54
%%abc-edited-by Jesse Rodin
%%abc-edited-by Jesse Rodin; Victoria Chang 2011/08/09/
%%abcx-initial-encoding-date 2011/08/09/
%%humdrum-veritas 1287148703
%%humdrum-veritas-data 916671255
%%linebreak <none>
%%barnumbers 0
L: 1/4
M: 2/1
Q: 1/2=120
%%staves [1 2 3 4]
V: 1 clef=treble
V: 2 clef=treble-8
V: 3 clef=treble-8
V: 4 clef=bass
K: C
[V:1] z8 | 
[V:2] d4d4 | 
[V:3] z8 | 
[V:4] D,4D,4 | 
[V:1] G4G4 | 
[V:2] e4d4- | 
[V:3] G4G4 | 
[V:4] G,4G,4 | 
[V:1] A4G4- | 
[V:2] d2c2c4- | 
[V:3] c4c4 | 
[V:4] C,8 | 
[V:1] G2F2F4- | 
[V:2] c4B4 | 
[V:3] F8 | 
[V:4] D,8 | 
[V:1] F4E4 | 
[V:2] c8 | 
[V:3] G8 | 
[V:4] C,8 | 
[V:1] F8 | 
[V:2] z4d4- | 
[V:3] F8 | 
[V:4] z8 | 
[V:1] z4G4- | 
[V:2] d2c2c4- | 
[V:3] z8 | 
[V:4] C,8 | 
[V:1] G2F2F4- | 
[V:2] c4B4 | 
[V:3] F8 | 
[V:4] D,4D,4 | 
[V:1] F4E4 | 
[V:2] c8 | 
[V:3] G4G4 | 
[V:4] C,8 | 
[V:1] F8 | 
[V:2] z8 | 
[V:3] F8 | 
[V:4] F,8 | 
[V:1] z8 | 
[V:2] f6f2 | 
[V:3] _B8 | 
[V:4] z8 | 
[V:1] _B6B2 | 
[V:2] f4f4 | 
[V:3] z8 | 
[V:4] D,4D,4 | 
[V:1] _B4B4 | 
[V:2] e4g4 | 
[V:3] G4G4 | 
[V:4] G,4G,4 | 
[V:1] A4c4 | 
[V:2] f4e4- | 
[V:3] c4c4 | 
[V:4] A,4A,4 | 
[V:1] _B4A4- | 
[V:2] e2d2d4- | 
[V:3] d4d4 | 
[V:4] D,8 | 
[V:1] A2G2G4- | 
[V:2] d4^c4 | 
[V:3] G8 | 
[V:4] E,8 | 
[V:1] G4^F4 | 
[V:2] d8 | 
[V:3] A8 | 
[V:4] D,8 | 
[V:1] G8 | 
[V:2] z8 | 
[V:3] G8 | 
[V:4] z8 | 
[V:1] z8 | 
[V:2] d4d4 | 
[V:3] z8 | 
[V:4] D,4D,4 | 
[V:1] G4G4 | 
[V:2] e4d4- | 
[V:3] G4G4 | 
[V:4] G,4G,4 | 
[V:1] A4G4- | 
[V:2] d2c2c4- | 
[V:3] c4c4 | 
[V:4] C,8 | 
[V:1] G2F2F4- | 
[V:2] c4B4 | 
[V:3] F8 | 
[V:4] D,8 | 
[V:1] F4E4 | 
[V:2] c8 | 
[V:3] G8 | 
[V:4] C,8 | 
[V:1] F8 | 
[V:2] z4d4- | 
[V:3] F8 | 
[V:4] z8 | 
[V:1] z4G4- | 
[V:2] d2c2c4- | 
[V:3] z8 | 
[V:4] C,8 | 
[V:1] G2F2F4- | 
[V:2] c4B4 | 
[V:3] F8 | 
[V:4] D,4D,4 | 
[V:1] F4E4 | 
[V:2] c8 | 
[V:3] G4G4 | 
[V:4] C,8 | 
[V:1] F8 | 
[V:2] z8 | 
[V:3] F8 | 
[V:4] F,8 | 
[V:1] z8 | 
[V:2] f6f2 | 
[V:3] _B8 | 
[V:4] z8 | 
[V:1] _B6B2 | 
[V:2] f4f4 | 
[V:3] z8 | 
[V:4] D,4D,4 | 
[V:1] _B4B4 | 
[V:2] e4g4 | 
[V:3] G4G4 | 
[V:4] G,4G,4 | 
[V:1] A4c4 | 
[V:2] f4e4- | 
[V:3] c4c4 | 
[V:4] A,4A,4 | 
[V:1] _B4A4- | 
[V:2] e2d2d4- | 
[V:3] d4d4 | 
[V:4] D,8 | 
[V:1] A2G2G4- | 
[V:2] d4^c4 | 
[V:3] G8 | 
[V:4] E,8 | 
[V:1] G4^F4 | 
[V:2] d4f4 | 
[V:3] A8 | 
[V:4] D,8 | 
[V:1] G4_B4 | 
[V:2] e4g4 | 
[V:3] G8 | 
[V:4] G,8 | 
[V:1] A4c4 | 
[V:2] f4e4- | 
[V:3] c8 | 
[V:4] A,4A,4 | 
[V:1] _B4A4- | 
[V:2] e2d2d4- | 
[V:3] d4d4 | 
[V:4] F,4D,4 | 
[V:1] A2G2G4- | 
[V:2] d4^c4 | 
[V:3] _B4G4 | 
[V:4] E,8 | 
[V:1] G4^F4 | 
[V:2] d8- | 
[V:3] A8 | 
[V:4] D,8 | 
[V:1] G8 |]  
[V:2] d8 |]  
[V:3] G8 |]  
[V:4] G,,8 |]  



